src/icons/svg/notification-on.svg

<!--category:time-->
<!--character:E025-->
<svg width="24" height="24" viewBox="0 0 24 24" xmlns="http://www.w3.org/2000/svg"><path d="M13.3266667,19.5 C13.41,19.5 13.4933333,19.5833333 13.5766667,19.6666667 L13.5766667,19.6666667 L13.5766667,19.9166667 C13.5766667,21.0833333 12.66,22 11.4933333,22 C10.3266667,22 9.41,21.0833333 9.41,19.9166667 L9.41,19.9166667 L9.41,19.6666667 C9.41,19.5833333 9.49333333,19.5 9.57666667,19.5 L9.57666667,19.5 Z M11.4933333,2 C11.9548718,2 12.2743984,2.28402367 12.3208254,2.72098316 L12.3266667,2.83333333 L12.3261972,3.25045215 C10.7098239,4.43291901 9.66,6.34385975 9.66,8.5 C9.66,12.0898509 12.5701491,15 16.16,15 C16.7062817,15 17.2368235,14.93261 17.7437658,14.8056897 L17.7433333,15.3333333 C17.7433333,16 18.3266667,16.5833333 18.9933333,16.5833333 C19.41,16.5833333 19.8266667,16.9166667 19.8266667,17.4166667 C19.8266667,17.8782051 19.542643,18.1977318 19.1056835,18.2441587 L18.9933333,18.25 L3.99333333,18.25 C3.49333333,18.25 3.16,17.9166667 3.16,17.4166667 C3.16,16.9166667 3.49333333,16.5833333 3.99333333,16.5833333 C4.61833333,16.5833333 5.17009115,16.070638 5.23661947,15.4572347 L5.24333333,15.3333333 L5.24333333,11.25 C5.08073171,8.07926829 7.29766607,5.30512592 10.423854,4.63000513 L10.66,4.58333333 L10.66,2.83333333 C10.66,2.33333333 10.9933333,2 11.4933333,2 Z M16.25,3.25 C19.1375,3.25 21.5,5.6125 21.5,8.5 C21.5,11.3875 19.1375,13.75 16.25,13.75 C13.3625,13.75 11,11.3875 11,8.5 C11,5.6125 13.3625,3.25 16.25,3.25 Z M19.3203792,5.93515662 C19.0041856,5.69801145 18.555616,5.76209283 18.3184708,6.07828639 L18.3184708,6.07828639 L15.7116006,9.55443143 C15.6703361,9.61013543 15.6068014,9.6450394 15.5376554,9.6499915 C15.4685094,9.6549436 15.4006492,9.62944987 15.3518677,9.58019479 L15.3518677,9.58019479 L14.1114097,8.33973677 C13.9305611,8.15888811 13.6669684,8.08825867 13.4199245,8.15445388 C13.1728807,8.22064908 12.9799174,8.4136123 12.9137222,8.66065617 C12.847527,8.90770003 12.9181565,9.17129269 13.0990051,9.35214135 L13.0990051,9.35214135 L14.5303028,10.7834391 C14.7970707,11.0523859 15.1600803,11.2038402 15.5388906,11.2042406 L15.5388906,11.2042406 L15.6428983,11.2042406 C16.0597614,11.1764257 16.4434406,10.9671461 16.6925166,10.6317215 L16.6925166,10.6317215 L19.4596922,6.93515662 C19.7006541,6.62087146 19.6365727,6.17230179 19.3203792,5.93515662 Z"/></svg>

<!--category:time-->
<!--character:E025-->
<svg width="24" height="24" viewBox="0 0 24 24" xmlns="http://www.w3.org/2000/svg"><path d="M13.326667 19.5c.083333 0 .166666.083333.25.166667v.25C13.576667 21.083333 12.66 22 11.493333 22 10.326667 22 9.41 21.083333 9.41 19.916667v-.25c0-.083334.083333-.166667.166667-.166667zM11.493333 2c.461539 0 .781065.284024.827492.720983l.005842.11235-.00047.41712C10.709824 4.432918 9.66 6.34386 9.66 8.5c0 3.58985 2.91015 6.5 6.5 6.5.546282 0 1.076823-.06739 1.583766-.19431l-.000433.527643c0 .666667.583334 1.25 1.25 1.25.416667 0 .833334.333334.833334.833334 0 .461538-.284024.781065-.720983.827492l-.11235.005841h-15c-.5 0-.833334-.333333-.833334-.833333s.333333-.833334.833333-.833334c.625 0 1.176758-.512695 1.243286-1.126098l.006714-.123902V11.25c-.162601-3.170732 2.054333-5.944874 5.180521-6.619995L10.66 4.583333v-1.75c0-.5.333333-.833333.833333-.833333zM16.25 3.25c2.8875 0 5.25 2.3625 5.25 5.25s-2.3625 5.25-5.25 5.25S11 11.3875 11 8.5s2.3625-5.25 5.25-5.25zm3.07038 2.685157c-.316194-.237146-.764764-.173064-1.00191.14313L15.7116 9.55443a.237596.237596 0 01-.359732.025764L14.11141 8.339737c-.180849-.180849-.444442-.251478-.691485-.185283-.247044.066195-.440008.259158-.506203.506202-.066195.247044.004435.510637.185283.691485l1.431298 1.431298c.266768.268947.629777.420401 1.008588.420802h.104007c.416863-.027815.800543-.237095 1.049619-.57252l2.767175-3.696564c.240962-.314286.17688-.762855-.139313-1z"/></svg>
